X:1
T:Für Elise Bagatelle no.25 Woo 59 
T:Ludwig van Beethoven
T:public domain
T:public domain
T:public domain
T:public domain
Z:public domain
%%score { 1 | 2 }
L:1/8
Q:1/4=92
M:3/8
K:C
V:1 treble 
V:2 bass 
V:1
|:"^Poco moto""^Andante" e/^d/ | e/^d/e/B/=d/c/ | A z/ C/E/A/ | B z/ E/^G/B/ | c z/ E/e/^d/ | %5
 e/^d/e/B/=d/c/ | A z/ C/E/A/ | B z/ E/c/B/ |1 A2 :|2 A z/ B/c/d/ |:!mf! e3/2 G/f/e/ | %11
 d3/2 F/e/d/ | c3/2 E/d/c/ | B z/ E/e/E/ | e/e/e'/^d/e/d/ | e/^d/e/d/e/d/ | e/^d/e/B/=d/c/ | %17
 A z/ C/E/A/ | B z/ E/^G/B/ | c z/ E/e/^d/ | e/^d/e/B/=d/c/ | A z/ C/E/A/ | B z/ E/c/B/ |1 %23
 A z/ B/c/d/ :|2 A z/ .[Ec]/.[Fc]/.[EGc]/ ||{/FA} c2 f/>e/ | ed_b/>a/ | a/g/f/e/d/c/ | %28
 _BA{/B} A/4G/4A/4B/4 | c2 d/^d/ | e>ef/A/ | cd/4c/4B/4c/<d/B/4 | %32
 c/4g/4G/4g/4 A/4g/4B/4g/4 c/4g/4d/4g/4 |!p! e/4g/4c'/4b/4 a/4g/4f/4e/4 d/4g/4f/4d/4 | %34
 c/4g/4G/4g/4 A/4g/4B/4g/4 c/4g/4d/4g/4 | e/4g/4c'/4b/4 a/4g/4f/4e/4 d/4g/4f/4d/4 | %36
 e/4f/4e/4^d/4 e/4B/4e/4d/4 e/4B/4e/4d/4 | e3/2 B/e/^d/ | e3/2 B/e/^d/ | e/^d/e/d/e/d/ | %40
 e/^d/e/B/=d/c/ | A z/ C/E/A/ | B z/ E/^G/B/ | c z/ E/e/^d/ | e/^d/e/B/=d/c/ | A z/ C/E/A/ | %46
 B z/ E/c/B/ | A z/ B/c/d/ | e3/2 G/f/e/ | d3/2 F/e/d/ | c3/2 E/d/c/ | B z/ E/e/E/ | %52
 e/e/e'/^d/e/d/ | e/^d/e/d/e/d/ | e/^d/e/B/=d/c/ | A z/ C/E/A/ | B z/ E/^G/B/ | c z/ E/e/^d/ | %58
 e/^d/e/B/=d/c/ | A z/ C/E/A/ | B z/ E/c/B/ | A z2 | [EG_B^c]3 | [FAd]2 [^ce]/[df]/ | %64
!f! [^Gdf]2 [Gdf] | [Ace]3 | [Fd]2 [Ec]/[DB]/ | [C^FA]2 [CA] | [CA][Ec][DB] | [CA]3 | [EG_B^c]3 | %71
!mf! [FAd]2 [^ce]/[df]/ |!f! [df]2 [df] | [df]3 | [G_e]2 [Fd]/[_Ec]/ | [DF_B]2 [DFA] | %76
 [DF^G]2 [DFG] | [CEA]2 z | [DEB] z z |[Q:1/4=144]"^Allegro" (3A,/C/E/ (3A/c/e/ (3d/c/B/ | %80
 (3A/c/e/ (3a/c'/e'/ (3d'/c'/b/ |[K:treble+8] (3A/c/e/ (3a/c'/e'/ (3d'/c'/b/ | %82
 (3_b/a/^g/ (3=g/^f/=f/ (3e/^d/=d/ |[K:treble] (3^c'/=c'/b/ (3_b/a/^g/ (3=g/^f/=f/ | %84
[Q:1/4=92]"^Andante" e/^d/e/B/=d/c/ | A z/ C/E/A/ | B z/ E/^G/B/ | c z/ E/e/^d/ | e/^d/e/B/=d/c/ | %89
 A z/ C/E/A/ | B z/ E/c/B/ | A z/ B/c/d/ | e3/2 G/f/e/ | d3/2 F/e/d/ | c3/2 E/d/c/ | B z/ E/e/E/ | %96
 e/e/e'/^d/e/d/ | e/^d/e/d/e/d/ | e/^d/e/B/=d/c/ | A z/ C/E/A/ | B z/ E/^G/B/ | c z/ E/e/^d/ | %102
 e/^d/e/B/=d/c/ | A z/ C/E/A/ | B z/ E/c/B/ | [CA]2 |] %106
V:2
|: z | z3 |!ped! A,,/E,/A,/ z/ z!ped-up! |!ped! E,,/E,/^G,/ z/ z!ped-up! | %4
!ped! A,,/E,/A,/ z/ z!ped-up! | z3 |!ped! A,,/E,/A,/ z/ z!ped-up! | %7
!ped! E,,/E,/^G,/ z/ z!ped-up! |1!ped! A,,/E,/A,/ z/!ped-up! :|2!ped! A,,/E,/A,/ z/ z!ped-up! |: %10
!ped! C,/G,/C/ z/ z!ped-up! |!ped! G,,/G,/B,/ z/ z!ped-up! |!ped! A,,/E,/A,/ z/ z!ped-up! | %13
!ped! E,,/E,/E/ z/ z!ped-up! | z3 | z3 | z3 |!ped! A,,/E,/A,/ z/ z!ped-up! | %18
!ped! E,,/E,/^G,/ z/ z!ped-up! |!ped! A,,/E,/A,/ z/ z!ped-up! | z3 |!ped! A,,/E,/A,/ z/ z!ped-up! | %22
!ped! E,,/E,/^G,/ z/ z!ped-up! |1 A,,/E,/A,/ z/ z :|2 A,,/E,/A,/ .[_B,C]/.[A,C]/.[G,B,C]/ || %25
 F,/A,/C/A,/C/A,/ | F,/_B,/D/B,/D/B,/ | F,/E/[F,G,_B,]/E/[F,G,B,]/E/ | F,/A,/C/A,/C/A,/ | %29
 F,/A,/C/A,/C/A,/ | E,/A,/C/A,/[D,D]/F,/ | G,/E/G,/E/G,/F/ | [CE] z/ .[FG]/.[EG]/.[DFG]/ | %33
 [CEG] [F,A,][G,B,] | C z/ .[FG]/.[EG]/.[DFG]/ | [CEG] [F,A,][G,B,] | [^G,B,] z2 | z3 | z3 | z3 | %40
 z3 |!ped! A,,/E,/A,/ z/ z!ped-up! |!ped! E,,/E,/^G,/ z/ z!ped-up! |!ped! A,,/E,/A,/ z/ z!ped-up! | %44
 z3 |!ped! A,,/E,/A,/ z/ z!ped-up! |!ped! E,,/E,/^G,/ z/ z!ped-up! |!ped! A,,/E,/A,/ z/ z!ped-up! | %48
!ped! C,/G,/C/ z/ z!ped-up! |!ped! G,,/G,/B,/ z/ z!ped-up! |!ped! A,,/E,/A,/ z/ z!ped-up! | %51
 E,,/E,/E/ z/ z | z3 | z3 | z3 |!ped! A,,/E,/A,/ z/ z!ped-up! |!ped! E,,/E,/^G,/ z/ z!ped-up! | %57
!ped! A,,/E,/A,/ z/ z!ped-up! | z3 |!ped! A,,/E,/A,/ z/ z!ped-up! |!ped! E,,/E,/^G,/ z/ z!ped-up! | %61
!ped! A,,/A,,/A,,/A,,/A,,/A,,/!ped-up! |!ped! A,,/A,,/A,,/A,,/A,,/A,,/!ped-up! | %63
!ped! A,,/A,,/A,,/A,,/A,,/A,,/!ped-up! |!ped! A,,/A,,/A,,/A,,/A,,/A,,/!ped-up! | %65
!ped! A,,/A,,/A,,/A,,/A,,/A,,/!ped-up! | %66
!ped! [D,,A,,]/[D,,A,,]/[D,,A,,]/[D,,A,,]/[D,,A,,]/[D,,A,,]/!ped-up! | %67
!ped! [^D,,A,,]/[D,,A,,]/[D,,A,,]/[D,,A,,]/[D,,A,,]/[D,,A,,]/!ped-up! | %68
!ped! [E,,A,,]/[E,,A,,]/[E,,A,,]/[E,,A,,]/[E,,^G,,]/[E,,G,,]/!ped-up! | %69
!ped! [A,,,A,,]/A,,/A,,/A,,/A,,/A,,/!ped-up! |!ped! A,,/A,,/A,,/A,,/A,,/A,,/!ped-up! | %71
!ped! A,,/A,,/A,,/A,,/A,,/A,,/!ped-up! |!ped! A,,/A,,/A,,/A,,/A,,/A,,/!ped-up! | %73
!ped! _B,,/B,,/B,,/B,,/B,,/B,,/!ped-up! |!ped! _B,,/B,,/B,,/B,,/B,,/B,,/!ped-up! | %75
!ped! _B,,/B,,/B,,/B,,/B,,/B,,/!ped-up! |!ped! B,,/B,,/B,,/B,,/B,,/B,,/!ped-up! | %77
!ped! C,2 z!ped-up! |!ped! [E,^G,] z z!ped-up! | A,,, z [A,CE] | [A,CE] z [A,CE] | %81
 [A,CE] z [A,CE] | [A,CE] z2 | z3 | z3 |!ped! A,,/E,/A,/ z/ z!ped-up! | %86
!ped! E,,/E,/^G,/ z/ z!ped-up! |!ped! A,,/E,/A,/ z/ z!ped-up! | z3 |!ped! A,,/E,/A,/ z/ z!ped-up! | %90
!ped! E,,/E,/^G,/ z/ z!ped-up! |!ped! A,,/E,/A,/ z/ z!ped-up! |!ped! C,/G,/C/ z/ z!ped-up! | %93
!ped! G,,/G,/B,/ z/ z!ped-up! |!ped! A,,/E,/A,/ z/ z!ped-up! | E,,/E,/E/ z/ z | z3 | z3 | z3 | %99
!ped! A,,/E,/A,/ z/ z!ped-up! |!ped! E,,/E,/^G,/ z/ z!ped-up! |!ped! A,,/E,/A,/ z/ z!ped-up! | z3 | %103
!ped! A,,/E,/A,/ z/ z!ped-up! |!ped! E,,/E,/^G,/ z/ z!ped-up! | [A,,,A,,]2 |] %106

